X:1
T:Title
%%score { ( 1 4 ) | ( 2 3 ) }
L:1/8
Q:1/4=90
M:6/8
K:C
V:1 treble nm="Grand Piano"
V:4 treble 
V:2 bass 
V:3 bass 
V:1
 [EG][_E^F][=FA] [=EG]2 [Ec] | [Fc]3 [FB]3 | GAA G2 d | [Ec]6 | [EG][_E^F][=FA] [=EG]2 [Ec] | %5
w: J.~H.~Tenney * * * *|||||
 [Fc]3 [FB]3 |[M:7/8] d^cd e3 d |[M:3/4] [Ec]6 | [FA]2 Ac B[CFA] | [EG]3 [Ec]3[K:bass] | %10
w: |||||
 [EB][Fd] [Ge]d z [C^FA] | G6 | [EG]e d[Ec] [DB][Ec] | [Fd]3 [FA]3 | Gc cB cd | %15
w: |||||
[M:15/16] c->c-[Fc-][Ec]3/2- [Ec]3 |] %16
w: |
V:2
 [C,C][C,C][C,C] [C,C]2 [C,G,] | [D,G,]3 [D,G,]3 | [G,B,F][G,CF][G,CF] [G,B,F]2 [G,F] | [C,G,]6 | %4
 [C,C][C,C][C,C] [C,C]2 [C,G,] | [D,G,]3 [D,G,]3 | %6
[M:7/8][K:treble] [G,B,F][G,_B,E][G,=B,F] [G,CG]3 [G,F] |[M:3/4][K:bass] [C,G,]6 | %8
 z2[K:treble] FA G[K:bass]F, | C,C, C, .[C,G,]3 | [C,G,][C,G,] .[C,C]2[K:treble] c[K:bass]D, | %11
 G,2 G, [G,D]3 | z[K:treble] G F[K:bass] [C,G,]2 [C,G,] | [F,A,]2 F, F,2 F, | %14
 [G,CE][G,E] [G,E]D E[G,B,F] |[M:15/16][K:bass] z3/2 z/ A,G,3/2- G,3 |] %16
V:3
 x6 | x6 | x6 | x6 | x6 | x6 |[M:7/8][K:treble] x7 |[M:3/4][K:bass] x6 | [F,C]6[K:treble][K:bass] | %9
 x6 | z2 z .[D,A,]3[K:treble][K:bass] | x6 | [C,C]4[K:treble][K:bass] z2 | x6 | z2 z .G,3 | %15
[M:15/16][K:bass] C,3/2-C,3/2-C,3/2- C,3 |] %16
V:4
 x6 | x6 | x6 | x6 | x6 | x6 |[M:7/8] x7 |[M:3/4] x6 | x6 | CC .C2 z[K:bass] [C,G,] | z2 z .^F3 | %11
 B,2 B, F3 | x6 | z2 A, C2 C | x6 |[M:15/16] .[CE]3 z3/2 z3 |] %16

